X: 4
T:Puncheon Floor
M:C|
L:1/8
Q:180
N:A Puncheon Floor is a
K:G
D|"G" GFGA BABc|d2g2B2B2|"D"d2g2 d2g2|"G"d2g2B2A2|!
"G"GFGA BABc|d2g2B2c2|"D"d2d2 cB A2g2:|
K:D
|fg|"D"a2 f2 "A7"g/2f/2 e2|"D" f2 d2 e4|f2 d2 e4|f2 d2 e2 fg|!
a2 f2 gf e|f2 d2 e2|f2 d2 e2 c2|d4:|
